X:53233
T:12 Apostles
S:Mrs Marina Russell, Upwey coll. HED Hammond
O:England
A:Dorset
N:Transcribed from HAM-02-240.gif
F:HAM-05-32-33.abc
Z:EFDSS;PJHeadford
M:2/4
L:1/8
Q:1/4=60
K:Ab
c2c> B|A> GF2||c2c> B|A> GF2||c> c c> B|A2F2||
w:|||||12 oh!
c2c> B|A2 F2||A A/ A/ A A|B2B B|A A A A|B B B< B|
w:||12|**e-levn th'e-levn
c c/ c/ c B|A2 F2|A A A A|B B B2|c c/ c/ c G&xxxB|A2 F2|
w: 10 are the||9||8
A A/ A/ A A|B B B2|c c/ c/ c G|A2 F2|A A/ A/ A A|B B/ B/ B z|
w: 7||6||5 are the
c> c c B|A2 F2|A A A A|B2 B2|A A A A|B/ B/ BB2|
w: 4||3 of them are ri-vers 2 of them
c c c B|A2 F2|A A A A|B B B B|c> d c B|A2 F2||
w:||One





